svgs/thin/closed-captioning.svg

<svg xmlns="http://www.w3.org/2000/svg" viewBox="0 0 576 512"><!--! Font Awesome Pro 6.3.0 by @fontawesome - https://fontawesome.com License - https://fontawesome.com/license (Commercial License) Copyright 2023 Fonticons, Inc. --><path d="M512 32H64C28.65 32 0 60.65 0 96v320c0 35.35 28.65 64 64 64h448c35.35 0 64-28.65 64-64V96C576 60.65 547.3 32 512 32zM560 416c0 26.47-21.53 48-48 48H64c-26.47 0-48-21.53-48-48V96c0-26.47 21.53-48 48-48h448c26.47 0 48 21.53 48 48V416zM192 176c21.36 0 41.45 8.328 56.56 23.44c3.125 3.125 8.188 3.125 11.31 0s3.125-8.188 0-11.31C241.8 169.1 217.6 160 192 160S142.3 169.1 124.1 188.1C105.1 206.3 96 230.4 96 256s9.984 49.75 28.12 67.88C142.3 342 166.4 352 192 352s49.75-9.984 67.88-28.12c3.125-3.125 3.125-8.188 0-11.31s-8.188-3.125-11.31 0C233.5 327.7 213.4 336 192 336s-41.45-8.328-56.56-23.44S112 277.4 112 256s8.328-41.45 23.44-56.56S170.6 176 192 176zM400 176c21.36 0 41.45 8.328 56.56 23.44c3.125 3.125 8.188 3.125 11.31 0s3.125-8.188 0-11.31C449.8 169.1 425.6 160 400 160s-49.75 9.984-67.88 28.12C313.1 206.3 304 230.4 304 256s9.984 49.75 28.12 67.88C350.3 342 374.4 352 400 352s49.75-9.984 67.88-28.12c3.125-3.125 3.125-8.188 0-11.31s-8.188-3.125-11.31 0C441.5 327.7 421.4 336 400 336s-41.45-8.328-56.56-23.44S320 277.4 320 256s8.328-41.45 23.44-56.56S378.6 176 400 176z"/></svg>

<svg xmlns="http://www.w3.org/2000/svg" viewBox="0 0 576 512"><!-- Font Awesome Pro 6.0.0-alpha2 by @fontawesome - https://fontawesome.com License - https://fontawesome.com/license (Commercial License) --><path d="M512 32H64C28.654 32 0 60.652 0 96V416C0 451.346 28.654 480 64 480H512C547.348 480 576 451.346 576 416V96C576 60.652 547.348 32 512 32ZM560 416C560 442.467 538.467 464 512 464H64C37.533 464 16 442.467 16 416V96C16 69.533 37.533 48 64 48H512C538.467 48 560 69.533 560 96V416ZM192 176C213.359 176 233.453 184.328 248.562 199.438C251.687 202.562 256.75 202.562 259.875 199.438S263 191.25 259.875 188.125C241.75 169.984 217.641 160 192 160S142.25 169.984 124.125 188.125C105.984 206.25 96 230.359 96 256S105.984 305.75 124.125 323.875C142.25 342.016 166.359 352 192 352S241.75 342.016 259.875 323.875C263 320.75 263 315.688 259.875 312.563S251.688 309.438 248.563 312.563C233.453 327.672 213.359 336 192 336S150.547 327.672 135.438 312.562S112 277.359 112 256S120.328 214.547 135.438 199.438S170.641 176 192 176ZM400 176C421.359 176 441.453 184.328 456.562 199.438C459.687 202.562 464.75 202.562 467.875 199.438S471 191.25 467.875 188.125C449.75 169.984 425.641 160 400 160S350.25 169.984 332.125 188.125C313.984 206.25 304 230.359 304 256S313.984 305.75 332.125 323.875C350.25 342.016 374.359 352 400 352S449.75 342.016 467.875 323.875C471 320.75 471 315.688 467.875 312.563S459.688 309.438 456.563 312.563C441.453 327.672 421.359 336 400 336S358.547 327.672 343.438 312.562S320 277.359 320 256S328.328 214.547 343.438 199.438S378.641 176 400 176Z"/></svg>
